assets/images/vector/icons/envelope_open_icon.svg

<svg fill="none" height="56" viewBox="0 0 59 56" width="59" xmlns="http://www.w3.org/2000/svg"><g stroke="#111" stroke-linecap="round" stroke-linejoin="round" stroke-width="10"><path d="m5 19.1666c0-2.4266 1.32-4.5366 3.44667-5.71l19.11003-10.54331c1.0033-.55333 2.2166-.55333 3.22 0l19.11 10.54331c2.1266 1.1734 3.4466 3.28 3.4466 5.71"/><path d="m53.3333 19.1798v24.9867c0 3.6833-2.9833 6.6667-6.6666 6.6667h-35c-3.68337 0-6.6667-2.9834-6.6667-6.6667v-25l22.7167 10.9667c.9166.4433 1.9833.4433 2.8966 0l22.7167-10.9667z"/></g></svg>

<svg width="59" height="56" viewBox="0 0 59 56" fill="none" xmlns="http://www.w3.org/2000/svg">
<path d="M5 19.1666C5 16.74 6.32 14.63 8.44667 13.4566L27.5567 2.91329C28.56 2.35996 29.7733 2.35996 30.7767 2.91329L49.8867 13.4566C52.0133 14.63 53.3333 16.7366 53.3333 19.1666" stroke="#111111" stroke-width="10" stroke-linecap="round" stroke-linejoin="round"/>
<path d="M53.3333 19.1798V44.1665C53.3333 47.8498 50.35 50.8332 46.6667 50.8332H11.6667C7.98333 50.8332 5 47.8498 5 44.1665V19.1665L27.7167 30.1332C28.6333 30.5765 29.7 30.5765 30.6133 30.1332L53.33 19.1665L53.3333 19.1798Z" stroke="#111111" stroke-width="10" stroke-linecap="round" stroke-linejoin="round"/>
</svg>
